X:1
T:Jeux d'eau
T:Jeux d'eau
T:M. 30
T:Maurice Ravel
C:Maurice Ravel
%%score { ( 1 5 ) | ( 2 4 ) | ( 3 6 ) }
L:1/8
Q:1/8=144
M:4/4
K:E
V:1 treble nm="鋼琴" snm="Pno."
V:5 treble 
V:2 treble 
V:4 treble 
V:3 treble 
V:6 treble 
V:1
"^Allegretto"!pp! (d/g/d'/f'/ d'/g/c/4g/4c'/4e'/4) (d/g/d'/f'/ d'/g/c/4g/4c'/4e'/4) | %1
[M:2/4] (d/g/d'/f'/!8va(! g/d'/g'/b'/) | %2
[M:4/4] (g/c'/g'/c''/ g'/c'/f/4^b/4e'/4g'/4) (g/c'/g'/c''/ g'/c'/f/4b/4e'/4g'/4) | %3
 (g/c'/g'/c''/ f/=c'/e'/g'/)!8va)! (=d/4g/4c'/4e'/4^c'/4a/4^e/4B/4) (^G/4=d/4f/4^a/4=g/4d/4B/4^E/4) | %4
 (=D/G/=c/e/ c/G/[^E=G]/4=B/4=d/4=g/4) (D/^G/c/=e/ c/G/[E=G]/4B/4d/4g/4) | %5
 (=D/G/=c/e/ c/G/D/E/) (D/4=C/4D/4E/4z/4G/4^A/4^B/4[Q:1/4=64]=d/4e/4[Q:1/4=56]f/4"^"g/4){[=g=b]}[Q:1/4=48] =B/8^c/8^d/8^e/8[Q:1/4=40]g/8=a/8b/8c'/8 | %6
!pp![Q:1/4=72]{/[gd']} (d/g/d'/f'/ d'/g/c/4g/4c'/4e'/4) (d/g/d'/f'/ d'/g/c/4g/4c'/4e'/4) | %7
[M:2/4] (d/g/d'/f'/ g/d'/g'/b'/) | %8
[M:4/4] (e'/b/e/B/ a/e/A/4E/4A/4e/4) (e'/b/e/B/ a/e/A/4E/4A/4e/4) | %9
 (e'/b/e/B/ a/e/A/E/) (F/G/c/f/ G/c/f/c'/) | %10
 z/ ([cg]/[c'g']/[cg]/) z/4!8va(! (c'/4g'/4c''/4g''/4c''/4g'/4c'/4)!8va)! (3z/ (f/g/(3c'/f'/c'/) (g/4c'/4g/4c'/4!8va(!f'/4c''/4f'/4c''/4)!8va)! | %11
[M:1/4] z/ ([cg]/[c'g']/[cg]/) | %12
[M:4/4]!<(!!8va(! z/4 (=d/4a/4=d'/4a'/4d'/4a/4d/4) z/ ([gc']/[g'c'']/[gc']/) z/4 (a/4d'/4a'/4=d''/4a'/4d'/4a/4) z/ ([c'g']/[c''g'']/[c'g']/)!<)! | %13
!ff!!>(! z/4 (=d'/4a'/4=d''/4a''/4d''/4a'/4d'/4) z/4 (a/4d'/4a'/4d''/4a'/4d'/4a/4)!8va)! z/4 (=d/4a/4d'/4a'/4d'/4a/4d/4) z/4 (A/4d/4a/4d'/4a/4d/4A/4)!>)! | %14
!f! (3z/ ([Gc]/g/)(3z/([Gc]/g/)(3z/([Gc]/g/)(3z/([Gc]/g/) (3z/ ([Gc]/g/)(3z/([Gc]/g/)(3z/([Gc]/g/)(3z/([Gc]/g/) | %15
!>(! z/4 (C/4G/4c/4g/4c/4G/4C/4) z/4 (C/4G/4c/4g/4c/4G/4C/4) z/4 (C/4G/4c/4g/4c/4G/4C/4) z/4 (C/4G/4c/4g/4c/4!>)!!mp!G/4C/4) | %16
[M:2/4][K:bass] z/4 (C,/4G,/4C/4)z/4(G,/4C/4G/4)[K:treble] z/4 (C/4G/4c/4)z/4(G/4c/4g/4) | %17
[M:4/4]!mf!!>(! z/4 (c/4g/4c'/4)z/4(c/4g/4c'/4)z/4(c/4g/4c'/4)z/4(c/4g/4c'/4) z/4 (c/4g/4c'/4)z/4(c/4g/4c'/4)z/4(c/4g/4c'/4)z/4(c/4g/4c'/4)!>)!"^rapido"[Q:1/4=56] x/ x/4 | %18
!pp![Q:1/4=72] (3([ab]/[ef]/[AB]/(3[AB]/[ef]/[ab]/) (3([ab]/[ef]/[AB]/(3[AB]/[ef]/[ab]/) (3([ab]/[ef]/[AB]/(3[AB]/[ef]/[ab]/)!>(! (3([ab]/[ef]/[AB]/(3[AB]/[ef]/!>)!!pp![ab]/) | %19
 (3([ab]/[ef]/[AB]/(3[AB]/[ef]/[ab]/) (3([ab]/[ef]/[AB]/(3[AB]/[ef]/[ab]/) (3([ab]/[ef]/[AB]/(3[AB]/[ef]/[ab]/) (3([ab]/[ef]/[AB]/(3[AB]/[ef]/[ab]/) | %20
"_tre corde"!pp!!<(! ([cfc'][dgd'] [cfc'][fbf']/[dgd']/!<)!!mf!!>(! [cfc'])[Gcg]!>(! ([Gcg]!>)![FBf])!>)! | %21
!p! ([EAe][Fcf]/[EAe]/ [CFc]2) ([EAe][Fcf]/[EAe]/ [CFc]/[B,EB]/[CFc]) | %22
!<(! (.[EAe].[Fcf].[EAe].[CFc]) ([B,EB]2!<)!!mf! [CFc]2) | %23
!pp! ([C^^Fc][D^Ad][EBe][=A=d=a]) ([C^^Fc]/[^D^A^d]/[Fc]/[DAd]/ [EBe][=A=d=a]) | %24
"_tre corde" ([c^^fc']!<(![d^ad'][ebe'][=a=d'a'])!8va(! ([c'^^f'c'']/[^d'^a'd'']/[f'c'']/[d'a'd'']/ [e'b'e'']!<)![=a'=d''=a''])!8va)! | %25
"^trem."!ff! !///-![=g=d']2 [_e'=g']2 !///-![gd']2 [e'g']2 | %26
 z/4 (=g/4=d'/4=g'/4)z/4(g'/4d'/4g/4) z/4 (g/4=d/4=G/4)z/4(G/4=D/4=G,/4) z/4 (G,/4D/4G/4)z/4(G/4d/4g/4) z/4 (g/4d'/4g'/4)z/4(g'/4d'/4g/4) | %27
 z/4 (=g/4=d'/4=g'/4)z/4(g'/4d'/4g/4) z/4 (g/4d'/4g'/4)z/4(g'/4d'/4g/4)[Q:1/4=68] z/4"_rit." (g/4[Q:1/4=64]d'/4g'/4[Q:1/4=56]z/.d'/)[Q:1/4=48] z/ (.[gd']/[Q:1/4=40].g'/.[gd']/) | %28
[Q:1/4=72]"^a tempo"!pp! (([cg]/[^e^a]/)([ea]/[cg]/) ([Bf]/[dg]/)([dg]/[Bf]/) ([cg]/[ea]/)([ea]/[cg]/) ([Bf]/[dg]/)([dg]/[Bf]/)) | %29
 (([cg]/[^e^a]/)([ea]/[cg]/) ([Bf]/[dg]/)([dg]/[Bf]/) ([=A=e]/[cf]/)([cf]/[Ae]/) ([Gd]/[^B^e]/)([Be]/[Gd]/)) | %30
 (([^Bf^a]/"^l.h."^A/)([ABf]/G/) ([Aeg]/"^l."G/)([GAeg]/[Ff]/) ([Bfa]/"^l."A/)([ABf]/G/) ([Aeg]/"^l."G/)([GAeg]/[Ff]/)) | %31
 (([^Bf^a]/"^l."^A/)([ABf]/G/) ([Aeg]/"^l."G/)([GAe]/F/) ([G=df]/"^l."F/)([FGd]/E/) ([A^^c^e]/"^l."^E/^^C/E/)) | %32
!mp!!>(! (([G=df]/"^l."F/)([FGd]/!>)!!pp!E/) ([^A^^c^e]/"^l."^E/)(^^C/E/))!mp!!>(! (([Gdf]/"^l."F/)([FGd]/!>)!!pp!=E/) ([Ac^e]/"^l."^E/C/E/)) | %33
!<(! (([G,=DF]/[EG]/[FB]/4D/4[G=d]/) [Gdf]/[eg]/[fb]/4d/4[g=d']/!8va(! [gd'f']/[e'g']/[f'b']/4d'/4!<)![g'=d'']/)!p! (3(^e''/4^^c''/4^a'/4(3^e'/4^^c'/4^a/4(3^e/4a/4c'/4(3e'/4a'/4c''/4) | %34
 (f''/4=d''/4b'/4f'/4)(g''/4d''/4b'/4g'/4) (3(^e''/4^^c''/4^a'/4(3^e'/4^^c'/4^a/4!8va)!(3^e/4^^c/4^A/4(3^E/4A/4c/4) (f/4=d/4B/4F/4)(g/4d/4B/4G/4) (e/4c/4A/4E/4^^C/4^A,/4[I:staff +1]^E,/4^A,,/4) | %35
[I:staff -1][K:bass] ([=D,F,B,]/C/[B,=D]/4F,/4F/[K:treble] [=DFB]/c/[B=d]/4F/4f/ [dfb]/c'/[b=d']/4f/4f'/)!8va(! (3(=d''/4b'/4=g'/4(3=d'/4b/4=g/4(3d/4g/4b/4(3d'/4g'/4b'/4) | %36
 (^d''/4^a'/4f'/4d'/4)(^e''/4a'/4f'/4^e'/4) (3(=d''/4=b'/4=g'/4(3=d'/4b/4=g/4!8va)!(3=d/4B/4=G/4(3=D/4G/4B/4) (^d/4^A/4F/4^D/4)(^e/4A/4F/4^E/4) (3(=d/4=B/4G/4[I:staff +1](3=D/4B,/4G,/4=D,/4=G,/4B,/4D/4)"^rapido" (^A,/4B,/4[I:staff -1]C/4=D/4[I:staff +1]F/4=G/4[I:staff -1]^A/4B/4[I:staff +1]c/4=d/4[I:staff -1]f/4g/4[I:staff +1]^a/4b/4[I:staff -1]c'/4d'/4) | %37
"^il canto un poco marcato"!p! (=d'c'^^fg) b2 x2 | (=d'c'^^fg) b2 x2 | %39
 (=d'c'e'd') (d'!<(!c'd'e')!<)! |!mp! (=g'f'^bc') e'2 x2 |!8va(! (=g'f'a'g' g'!<(!f'g'a')!<)! | %42
!f! (^b'^a'd'=e' =g'2) x2 | %43
"_cresc. e accel." (^b'^a'[Q:1/4=76]c''b'[Q:1/4=78] b'a'[Q:1/4=80]b'c'') | %44
[Q:1/4=84] (=d''=c''[Q:1/4=88]_e''d''[Q:1/4=92] d''c''[Q:1/4=94]d''e'') | %45
!ff![Q:1/4=96] (^e''d''f''e'' e''d''f''e'') | (^e''d''f''e'' e''d''f''e'') | %47
 [^a'd''^a'']2!8va)! x2[Q:1/4=50]"^lunga""_"!8va(![I:staff +1] !////-!!fermata![g^ac']2[I:staff -1] [d'f'g'a']2[Q:1/4=60] (25:16:25(^a''/8g''/8f''/8d''/8c''/8a'/8g'/8f'/8d'/8c'/8!8va)!a/8"^glissando"g/8f/8d/8c/8^A/8G/8F/8D/8C/8[K:bass]^A,/8G,/8F,/8D,/8C,/8) | %48
[M:2/4][Q:1/4=84] z/4 (C,/4D,/4F,/4^A,/4F,/4D,/4C,/4) z/4 (C,/4D,/4F,/4A,/4F,/4D,/4C,/4) | %49
[M:4/4]!>(! z8!>)! | %50
[K:treble]!p![Q:1/4=72]"^Tempo I" ([^A,D][^B,^E] [=A,=D][FA]/[A,D]/ [^A,^D][B,E] [=A,=D]) z | %51
 ([D^Ad][^E^B^e][=D=A=d][fa]/[Ad]/ [^D^A^d][EBe][=D=A=d][DA]/) z/ | %52
[K:bass] z2!pp! (!>!^B,,!>!A,,/) z/ z2 (!>!^B,/>[I:staff +1]A,/)[I:staff -1][K:treble] [^B,=D]/4F/4A/4=d/4 | %53
[M:2/4]"_tre corde"!<(! (G/4^d/4f/4g/4[^B=d]/4f/4a/4=d'/4)!8va(! (g/4^d'/4f'/4g'/4[^b=d']/4f'/4a'/4=d''/4)!<)! | %54
[M:3/4]!f![I:staff +1] [fc']/4[I:staff -1][^b=d'a']/4a/4[bd'a']/4!8va)![I:staff +1] ([Fc]/4[I:staff -1][^B=da]/4A/4[Bda]/4)!>(! z/4 ([=DFA]/4C/4^B,/4=B,/4^A,/4=A,/4G,/4)[K:bass] z/4 ([=D,F,A,]/4C,/4^B,,/4=B,,/4^A,,/4=A,,/4G,,/4)!>)! | %55
[M:4/4][K:treble]!p! ([^B,^E][=D=G] [=B,=E][^GB]/[B,E]/) ([^E^B^e][=G=c=g] [=E=B=e][EB]/) z/ | %56
[M:2/4] z2[K:bass] !>!=D,[K:treble][I:staff +1]B,,/[I:staff -1] x/ | %57
"_tre corde" (G/4^d/4^g/4b/4[=de]/4g/4b/4e'/4)!8va(! (g/4^d'/4g'/4b'/4[=d'e']/4g'/4b'/4e''/4) | %58
[M:3/4]!f![I:staff +1] ([gd']/4[I:staff -1][=d'e'b']/4b/4[d'e'b']/4)!8va)![I:staff +1] ([Gd]/4[I:staff -1][=deb]/4B/4[deb]/4)!>(! z/4 ([EGB]/4^D/4=D/4C/4^B,/4=B,/4^A,/4)[K:bass] z/4 ([E,G,B,]/4^D,/4=D,/4C,/4^B,,/4=B,,/4^A,,/4)!>)! | %59
[M:4/4][K:treble]!mf!!<(! ([CF][DG] [^B,^E][E^B]/!<)![B,E]/) =c'=d'bf | %60
!f! [fc'][gd'] (^^f^e/!f!^B/)[Q:1/4=68]!>(!!8va(! !>!f'[Q:1/4=64]"^rall. leggermente"[Q:1/4=60]!>!g'[Q:1/4=56][Q:1/4=52]!>!a'[Q:1/4=48][Q:1/4=44]!>!b'[Q:1/4=24]!>)!!8va)! | %61
!pp![Q:1/4=72]"^Tempo I" (d/g/d'/f'/ d'/g/c/4g/4c'/4e'/4) (d/g/d'/f'/ d'/g/c/4g/4c'/4e'/4) | %62
[M:2/4] (d/g/d'/f'/!8va(! g/d'/g'/b'/) | %63
[M:4/4] (g/c'/g'/c''/ g'/c'/f/4^b/4e'/4g'/4) (g/c'/g'/c''/ g'/c'/f/4b/4e'/4g'/4) | %64
!mf! z/4 (g/4c'/4g'/4c''/4g'/4c'/4g/4) z/4 (c/4g/4c'/4g'/4c'/4g/4c/4)!8va)! z/4 (G/4c/4g/4c'/4g/4c/4G/4) z/4 (C/4G/4c/4g/4c/4G/4C/4) | %65
!>(! z/4 (G,/4C/4G/4c/4G/4C/4G,/4) z/4 (G,/4C/4G/4c/4G/4C/4G,/4) z/4 (G,/4C/4G/4c/4G/4C/4G,/4) z/4 (G,/4C/4G/4c/4G/4C/4G,/4)!>)! | %66
[M:2/4]!pp![I:staff +1] (5:4:5([F,,D,G,]/4[I:staff -1][K:bass]E,/4A,/4=C/4E/4)[I:staff +1] (5:4:5[F,DG]/4[I:staff -1][K:treble](E/4A/4=c/4e/4)[I:staff +1] (5:4:5[Fdg]/4[I:staff -1](e/4a/4=c'/4e'/4)!8va(![I:staff +1] (5:4:5[fd'g']/4[I:staff -1](e'/4a'/4=c''/4e''/4) | %67
[M:4/4][I:staff +1] (7:4:7(f'/4g'/4d''/4[I:staff -1]a'/4=c''/4e''/4a''/4)[I:staff +1] (7:4:7(g'/4^a'/4^^c''/4[I:staff -1]b'/4d''/4f''/4b''/4)[I:staff +1] (7:4:7(e'/4f'/4^c''/4[I:staff -1]=g'/4_b'/4=d''/4=g''/4)[I:staff +1] (7:4:7(e'/4^g'/4^b'/4[I:staff -1]a'/4^c''/4e''/4a''/4)[I:staff +1] (7:4:7(=d'/4e'/4=b'/4[I:staff -1]=f'/4_a'/4=c''/4=f''/4)[I:staff +1] (7:4:7(d'/4^f'/4^a'/4[I:staff -1]=g'/4=b'/4d''/4=g''/4)[I:staff +1] (7:4:7(=c'/4d'/4=a'/4[I:staff -1]_e'/4_g'/4_b'/4_e''/4)[I:staff +1] (7:4:7(c'/4=e'/4^g'/4[I:staff -1]=f'/4=a'/4c''/4=f''/4) | %68
[I:staff +1] (7:4:7(a/4b/4f'/4[I:staff -1]=c'/4_e'/4=g'/4=c''/4)[I:staff +1] (7:4:7(f/4g/4d'/4[I:staff -1]a/4c'/4=e'/4a'/4)[I:staff +1] (7:4:7(d/4^e/4^b/4[I:staff -1]f/4a/4^c'/4f'/4)[I:staff +1] (7:4:7(=c/4=d/4a/4[I:staff -1]_e/4_g/4_b/4_e'/4)!8va)![I:staff +1] (7:4:7(A/4B/4f/4[I:staff -1]c/4e/4=g/4=c'/4)[I:staff +1] (7:4:7(F/4G/4^d/4[I:staff -1]A/4c/4=e/4a/4)[I:staff +1] (7:4:7(=D/4^E/4^B/4[I:staff -1]F/4A/4^c/4f/4)[I:staff +1] (7:4:7(=C/4=D/4A/4[I:staff -1]_E/4_G/4_B/4_e/4) | %69
 (3z/ (=c/^A/)!>(! (3z/ (=C/^A,/)[K:bass] (3z/ (=C/A,/) (3z/ (C/A,/) (3z/ (C/A,/) (3z/ (=C,/^A,,/) (3z/ (E,/A,,/) (3z/ (C,/A,,/) | %70
 (3z/ (=C,/^A,,/) (3z/ (=C,,/^A,,,/) (3z/ (C,,/!>)!A,,,/)!ppp! (3z/ (C,,/A,,,/) (3z/ (C,,/A,,,/) (3z/ (C,,/A,,,/) (3z/ (C,,/A,,,/) (3z/ (C,,/A,,,/) | %71
"^rapido molto""_tre corde"!ppp![I:staff +1] (7:4:7(F,,,/4^A,,,/4C,,/4[I:staff -1]=C,,/4E,,/4=G,,/4=C,/4)[I:staff +1] (7:4:7(F,,/4^A,,/4^C,/4[I:staff -1]=C,/4E,/4=G,/4=C/4)[I:staff +1] (7:4:7(F,/4^A,/4^C/4[I:staff -1][K:treble]=C/4E/4=G/4=c/4)[I:staff +1] (7:4:7(F/4^A/4^c/4[I:staff -1]=c/4e/4=g/4=c'/4)!8va(![I:staff +1] (7:4:7(f/4^a/4^c'/4[I:staff -1]=c'/4e'/4=g'/4=c''/4)[I:staff +1] (5:4:5[f'^a'^c'']/4[I:staff -1](=c''/4g'/4e'/4c'/4)!8va)![I:staff +1] (5:4:5[fa^c']/4[I:staff -1](=c'/4g/4e/4c/4)[I:staff +1] (5:4:5([FA^c]/4[I:staff -1]=c/4e/4g/4c'/4)!8va(![I:staff +1] (5:4:5([fa^c']/4[I:staff -1]=c'/4e'/4g'/4c''/4)[I:staff +1] (5:4:5[f'a'^c'']/4[I:staff -1](=c''/4g'/4e'/4c'/4)!8va)![I:staff +1] (5:4:5[fa^c']/4[I:staff -1]=c'/4g/4e/4c/4 | %72
!mp!!<(![I:staff +1] (5:4:5[FA^c]/4[I:staff -1]=c/4e/4g/4c'/4[I:staff +1] (5:4:5[fa^c']/4[I:staff -1]=c'/4g/4e/4c/4[I:staff +1] (5:4:5[FA^c]/4[I:staff -1]=c/4e/4g/4c'/4[I:staff +1] (5:4:5[fa^c']/4[I:staff -1]=c'/4g/4e/4c/4[I:staff +1] (5:4:5[FA^c]/4[I:staff -1]=c/4e/4g/4c'/4[I:staff +1] (5:4:5[fa^c']/4[I:staff -1]=c'/4g/4e/4c/4[I:staff +1] (5:4:5[FA^c]/4[I:staff -1]=c/4e/4g/4c'/4[I:staff +1] (5:4:5[fa^c']/4[I:staff -1]=c'/4!<)!g/4!f!e/4c/4[I:staff +1] (5:4:5[FA^c]/4!>(![I:staff -1]G/4=c/4e/4g/4[I:staff +1] (5:4:5[fa]/4[I:staff -1]g/4e/4c/4G/4[I:staff +1] (5:4:5[FA^c]/4[I:staff -1]G/4=c/4e/4g/4[I:staff +1] (5:4:5[fa]/4[I:staff -1]g/4e/4c/4G/4[I:staff +1] (5:4:5[FA^c]/4[I:staff -1]G/4=c/4e/4g/4[I:staff +1] (5:4:5[fa]/4[I:staff -1]g/4e/4c/4G/4!>)! | %73
[I:staff +1] (5:4:5[FA^c]/4[I:staff -1]G/4=c/4e/4g/4[I:staff +1] (5:4:5[f^a]/4[I:staff -1]g/4e/4c/4!mf!G/4[I:staff +1] (5:4:5[FA^c]/4[I:staff -1]G/4=c/4e/4"^dim."g/4[I:staff +1] (5:4:5[fa]/4[I:staff -1]g/4e/4=c/4G/4[I:staff +1] (5:4:5[FA^c]/4[I:staff -1]G/4=c/4e/4g/4[I:staff +1] (5:4:5[fa]/4[I:staff -1]g/4e/4=c/4G/4[I:staff +1] (5:4:5[FA^c]/4[I:staff -1]G/4=c/4e/4g/4[I:staff +1] (5:4:5[fa]/4[I:staff -1]g/4e/4=c/4G/4[I:staff +1] (5:4:5[FA^c]/4[I:staff -1]G/4=c/4e/4g/4[I:staff +1] (5:4:5[fa]/4[I:staff -1]g/4e/4=c/4G/4!p![I:staff +1] [FA]/4!>(![I:staff -1]G/4c/4e/4[I:staff +1] [^cf]/4[I:staff -1]e/4=c/4G/4[I:staff +1] [FA]/4[I:staff -1]G/4c/4e/4[Q:1/4=68][I:staff +1] [^cf]/4[I:staff -1]e/4"^rall."[Q:1/4=64]=c/4G/4[Q:1/4=60][I:staff +1] [FA]/4[I:staff -1]G/4[Q:1/4=56]c/4e/4 | %74
[Q:1/4=52][I:staff +1] [^cf]/4[I:staff -1]e/4[Q:1/4=48]=c/4G/4[Q:1/4=44][I:staff +1] [FA]/4[I:staff -1]G/4[Q:1/4=40]c/4e/4[Q:1/4=36][I:staff +1] [^cf]/4[I:staff -1]e/4[Q:1/4=32]=c/4!>)!!pp!G/4 | %75
!pp![Q:1/4=54]"^Un poco più lento del principio" (([=F=c]/[A=d]/)([Ad]/[Fc]/) ([_E_B]/[=Gc]/)([Gc]/[EB]/) ([Fc]/[Ad]/)([Ad]/[Fc]/) ([EB]/[Gc]/)([Gc]/[EB]/) | %76
[Q:1/4=50] ([=F=c]/"_rall."[A=d]/)[Q:1/4=48]([Ad]/[Fc]/)[Q:1/4=46] ([_E_B]/[=Gc]/)[Q:1/4=44]([Gc]/[EB]/)[Q:1/4=42] ([^C^G]/[^E^A]/)[Q:1/4=40]([EA]/[CG]/)[Q:1/4=38] ([=B,^F]/[^DG]/)[Q:1/4=36]([DG]/[B,F]/4))[Q:1/4=5] !fermata!z/4 | %77
[Q:1/4=42]"^Lento""_espressivo molto\n" (cd B!>!f/=d/) (c^d Bf/=d/) | %78
 cdBc AB[Q:1/4=16] !fermata![^A,EG]2 |[Q:1/4=160] B,8 | %80
[Q:1/4=42]!p! (3([a'b']/4[e'f']/4[ab]/4(3[ab]/4[ef]/4[AB]/4(3[AB]/4[ef]/4[ab]/4(3[ab]/4[e'f']/4[a'b']/4) (3([a'b']/4[e'f']/4[ab]/4(3[ab]/4[ef]/4[AB]/4(3[AB]/4[ef]/4[ab]/4(3[ab]/4[e'f']/4[a'b']/4) (3([a'b']/4[e'f']/4[ab]/4(3[ab]/4[ef]/4[AB]/4(3[AB]/4[ef]/4[ab]/4(3[ab]/4[e'f']/4[a'b']/4) (3([a'b']/4[e'f']/4[ab]/4(3[ab]/4[ef]/4[AB]/4(3[AB]/4[ef]/4[ab]/4(3[ab]/4[e'f']/4[a'b']/4) | %81
!p! (3([a'b']/4[e'f']/4[ab]/4(3[ab]/4[ef]/4[AB]/4(3[AB]/4[ef]/4[ab]/4(3[ab]/4[e'f']/4[a'b']/4) (3([a'b']/4[e'f']/4[ab]/4(3[ab]/4[ef]/4[AB]/4(3[AB]/4[ef]/4[ab]/4(3[ab]/4[e'f']/4[a'b']/4) (3([a'b']/4[e'f']/4[ab]/4(3[ab]/4[ef]/4[AB]/4(3[AB]/4[ef]/4[ab]/4(3[ab]/4[e'f']/4[a'b']/4) (3([a'b']/4[e'f']/4[ab]/4(3[ab]/4[ef]/4[AB]/4(3[AB]/4[ef]/4[ab]/4(3[ab]/4[e'f']/4[a'b']/4) | %82
 (a'/8f'/8e'/8c'/8a/8f/8e/8c/8A/8c/8e/8f/8a/8c'/8e'/8f'/8 a'/8f'/8e'/8c'/8a/8f/8e/8c/8A/8c/8e/8f/8a/8c'/8e'/8f'/8 a'/8f'/8e'/8c'/8a/8f/8e/8c/8A/8c/8e/8f/8a/8c'/8e'/8f'/8 a'/8f'/8e'/8c'/8a/8f/8e/8c/8A/8c/8e/8f/8a/8c'/8e'/8f'/8) | %83
 (15:8:15(a'/4f'/4e'/4c'/4a/4f/4e/4c/4A/4c/4e/4f/4a/4c'/4e'/4 (15:8:15f'/4e'/4c'/4a/4f/4e/4c/4A/4F/4A/4c/4e/4f/4a/4c'/4 (15:8:15e'/4c'/4a/4f/4e/4c/4A/4F/4E/4F/4A/4c/4e/4f/4a/4 b/8a/8f/8e/8c/8A/8F/8E/8C/8E/8F/8A/8c/8e/8f/8a/8 | %84
 b/8g/8e/8c/8B/8G/8E/8C/8B,/8C/8E/8G/8B/8c/8e/8g/8 b/8g/8e/8c/8B/8G/8E/8C/8B,/8C/8E/8G/8B/8c/8e/8g/8 b/8g/8e/8c/8B/8G/8E/8C/8B,/8C/8E/8G/8B/8c/8e/8g/8 b/8g/8e/8c/8B/8G/8E/8C/8B,/8C/8E/8G/8B/8c/8e/8g/8 | %85
 b/8g/8e/8c/8B/8G/8E/8C/8B,/8C/8E/8G/8B/8c/8e/8g/8 b/8g/8e/8c/8B/8G/8E/8C/8B,/8C/8E/8G/8B/8c/8e/8g/8 b/8g/8e/8c/8B/8G/8E/8C/8B,/8C/8E/8G/8B/8c/8e/8g/8 b/8g/8e/8c/8B/8G/8E/8C/8B,/8C/8E/8G/8B/8c/8e/8g/8) | %86
[M:2/4] z4[Q:1/4=40][Q:1/4=38][Q:1/4=36][Q:1/4=34][Q:1/4=32][Q:1/4=30][Q:1/4=28] | %87
[M:4/4][Q:1/4=24] z8[Q:1/4=42] |] %88
V:2
"^una corda"!ped! [EB][Ge][eb][Ae]!ped-up!!ped! [EB][Ge][eb][Ae]!ped-up! | %1
[M:2/4]!ped! [EB][Ge][Be][eb]!ped-up! | %2
[M:4/4]!ped! [Ae][ca][ae']!arpeggio![=DF^B]!ped-up!!ped! [Ae][ca][ae']!arpeggio![DFB]!ped-up! | %3
!ped! ([Ae][ca] [F=c]!ped-up![=DA])[K:bass]!ped! [_B,G][=G,^E]!ped-up!!ped![=E,=D][^C,=B,]!ped-up! | %4
!ped! z !>![_B,G]2 z!ped-up!!ped! z [_B,G]2 z!ped-up! | %5
!ped! z !>![_B,G]2 !>![B,G]-!>(! [B,G]!ped-up![G,^B,F][F,^A,E][=F,=A,^D]!>)! | %6
!ped! [E,,B,,G,][K:treble][EB][DGd][A,E]!ped-up!!ped! [E,B,G][EB][DGd][A,E]!ped-up! | %7
[M:2/4]!ped! [E,B,G][EB][DGd][Beb]!ped-up! | %8
[M:4/4]!ped! ([cg][gc'])!ped-up!!ped! ([Fc][cf])!ped-up!!ped! ([cg][gc'])!ped-up!!ped! ([Fc][cf])!ped-up! | %9
!ped! ([cg][gc'])!ped-up!!ped! ([Fc][cf])!ped-up!!ped! .[A,D] (!>![DA]2 .[DFd])!ped-up! | %10
[K:bass]!ped! [C,G,][CG][K:treble] [CG][cg]!ped-up!!ped! ([A=d][da][da][f=d'])!ped-up! | %11
[M:1/4]!ped! [CG][Gc]!ped-up! | %12
[M:4/4]!ped! ([cg][Bf])!ped-up!!ped! [CG][Gc]!ped-up!!ped! ([gc'][fb])!ped-up!!ped! [cg][gc']!ped-up! | %13
!ped! ([c'g'][bf'])!ped-up!!ped! ([gc'][fb])!ped-up!!ped! ([cg][Bf])!ped-up!!ped! ([Gc][FB])!ped-up! | %14
[K:bass]!ff!!ped! z[K:treble] (!wedge!B!wedge!G!wedge!F !wedge!G!wedge!B!wedge!G!wedge!F!ped-up! | %15
[K:bass]!ped! C)!wedge![B,E]!wedge![G,E]!wedge![F,E] !wedge![G,E]!wedge![B,E]!wedge![G,E]!wedge![F,E]!ped-up! | %16
[M:2/4]!<(!!ped! (!wedge!C,!wedge!G,!wedge!C!wedge!G)!<)! | %17
[M:4/4][K:treble] cccc cccc!ped-up!!ped! (B,/8C/8E/8F/8[I:staff -1][AB]/8[ef]/8) | %18
[I:staff +1] (.[cc'].[dd'] .[cc'].[ff']/.[dd']/!ped-up!!ped! .[cc'].[Gg]) ([Gg][Ff])!ped-up! | %19
!ped! (.[Cc].[Dd]!ped-up!!ped! .[Cc].[Ff]/.[Dd]/!ped-up!!ped! .[Cc].[G,G])!ped-up!!>(!!ped! ([G,G]!>)![F,F])!ped-up! | %20
[K:bass]!ped! (B,,/4C,/4E,/4A,/4[K:treble]B,/4C/4E/4A/4!ped-up!!ped! B,/4C/4E/4A/4e/4A/4E/4C/4!ped-up!!ped! B,/4C/4E/4A/4B,/4C/4E/4A/4 B,/4C/4E/4A/4!ped-up!B,/4C/4E/4A/4) | %21
[K:bass]!ped! (G,/4A,/4C/4E/4)(F,/4A,/4C/4E/4)!ped-up!!ped! E,/4F,/4A,/4C/4E/4C/4A,/4F,/4!ped-up!!ped! C,/4E,/4F,/4A,/4C/4A,/4F,/4E,/4!ped-up!!ped! B,,/4C,/4E,/4F,/4A,/4F,/4E,/4C,/4!ped-up! | %22
!ped! (A,,/4C,/4E,/4F,/4A,/4F,/4E,/4C,/4)!ped-up!!ped! G,,/4C,/4E,/4F,/4A,/4F,/4E,/4C,/4!ped-up!!ped! F,,/4A,,/4C,/4E,/4F,/4E,/4C,/4A,,/4!ped-up!!>(!!ped! E,,/4A,,/4C,/4E,/4F,/4E,/4C,/4A,,/4!>)! | %23
"^una corda" ([D,,^A,,]/4D,/4^E,/4^^F,/4C/4F,/4E,/4D,/4)!ped-up!!ped! ([=G,,=D,]/4=F,/4=A,/4B,/4=F/4B,/4A,/4F,/4)!ped-up!!ped! ([^D,,^A,,]/4^D,/4E,/4^^F,/4C/4F,/4E,/4D,/4)!ped-up!!ped! ([G,,=D,]/4=F,/4=A,/4B,/4=F/4B,/4A,/4F,/4)!ped-up! | %24
!ped! ([D,^A,]/4D/4^E/4^^F/4[K:treble]c/4F/4E/4D/4)!ped-up!!ped! ([=G,=D]/4=F/4=A/4B/4=f/4B/4A/4F/4)!ped-up!!ped! ([^D^A]/4d/4^e/4^^f/4c'/4f/4e/4d/4)!ped-up!!ped! ([=G=d]/4=f/4=a/4b/4=f'/4b/4a/4f/4)!ped-up! | %25
!ped! !>![_E_B_e]!>!_b' z2 !>![e_b]!>!b' z2 | %26
 !wedge![_e_b]!wedge![_e'_b'] !wedge![eb]!wedge![_E_B] !wedge![_E,_B,]!wedge![EB] !wedge![eb]!wedge![e'b'] | %27
!>(! !wedge![_e_b]!wedge![_e'_b'] !wedge![eb]!wedge![e'b'] !wedge![eb]!wedge![e'b'] !wedge![=db]!wedge![e'b']!ped-up!!>)! | %28
!ped! (.[bd'].[c'^e']!ped-up!!ped! [=ac'][d'g']/[ac']/)!ped-up!!ped! (.[bd'].[c'e']!ped-up!!ped! .[=ac'][d'g']/[ac']/)!ped-up! | %29
!ped! (.[bd'].[c'^e']!ped-up!!ped!.[=ac'].[bd']!ped-up!!ped! .[=gb].[ac']!ped-up!!ped!.[f^a].[^g^b])!ped-up! | %30
[K:bass]!ped! [G,DF][I:staff -1][g^b]!ped-up!!ped![I:staff +1] [F,CE][I:staff -1]!>![ad']!ped-up!!ped![I:staff +1] [G,DF][I:staff -1][gb]!ped-up!!ped![I:staff +1] [F,CE][I:staff -1]!>![ad']!ped-up! | %31
!ped![I:staff +1] [G,DF][I:staff -1][g^b]!ped-up!!ped![I:staff +1] [F,CE][I:staff -1][fa]!ped-up!!ped![I:staff +1] [E,B,=D][I:staff -1][eg]!ped-up!!ped![I:staff +1] [^A,,^E,^A,][I:staff -1]A!ped-up! | %32
!ped![I:staff +1] [E,B,=D][I:staff -1][eg]!ped-up!!ped![I:staff +1] [^A,,^E,^A,][I:staff -1]A!ped-up!!ped![I:staff +1] [E,B,D][I:staff -1][=eg]!ped-up!!ped![I:staff +1] [A,,E,A,][I:staff -1]A!ped-up! | %33
!ped![I:staff +1] [B,,E,B,](!>!C!ped-up![K:treble]!ped! [B,EB])(!>!c!ped-up!!ped! [Beb])(c'/b/"_tre corde" (^A/)[^e^a^^c']/) z/ [eac']/!ped-up! | %34
!ped! G/[=dfb][dfb]/!ped-up!!ped!x/[^E^A^^c]/ z!ped-up!!ped! G,/CB,/!ped-up![K:bass]!ped! ^A,,/[^E,^A,^^C]/ z/ x/!ped-up! | %35
!ped! G,,(!>!^A,!ped-up![K:treble]!ped! G,)(!>!^A!ped-up!!ped! G)([A^a]/[Gg]/!ped-up!!ped! (=G/)[=d=gb]/) z/ [dgb]/!ped-up! | %36
!ped! ^B,/[F^Ad][FAd]/!ped-up!!ped! =G,/[=D=G=B]/ z!ped-up![K:bass]!ped! ^B,,/^E,D,/!ped-up!!ped! =G,,/[=D,=G,=B,]/ z[K:treble] x4!ped-up! | %37
!ped! (3(C^EB!ped-up!"_(sopra)"!ped! cE)!ped-up!!ped! (C/=E/=G/B/ eB)!ped-up! | %38
!ped! (3(C^EB!ped-up!!ped! cE)!ped-up!!ped! (C/=E/=G/B/ eB)!ped-up! | %39
[K:bass]!ped! z z/[K:treble] [C^EB]/ ([=E^EB][=DEB])!ped-up![K:bass]!ped! z[K:treble] ([CEB][DEB][=E^EB])!ped-up! | %40
!ped! (F,/C/E/^A/!ped-up!!ped! .e).A!ped-up!!ped! (3(F,/=C/E/(3=A/=c/e/ (3a/e/c/(3A/E/C/)!ped-up! | %41
!ped! z z/[K:treble] [F^Ae]/ ([=A^Ae][=GAe])!ped-up!!ped! z ([FAe][GAe][=A^Ae])!ped-up! | %42
!ped! ^^F,/C/^E/^A/!ped-up!!ped! ^A,[=EGc]!ped-up!!ped! C/=G/B/e/ [CGB][A,E^G]!ped-up! | %43
!ped! (3(^^F,/C/^E/(3^^F/c/^e/)!ped-up!!ped! (^A/=e/g/c'/)!ped-up!!ped! (3(Fc^e)!ped-up!!ped! (A/=e/g/^a/)!ped-up! | %44
!ped! (3(A_e=g)!ped-up!!ped! (=c/_g/_b/_e'/)!ped-up!!ped! (3(Ae=g)!ped-up!!ped! (c/_g/b/=c'/)!ped-up! | %45
!ped! (3(^B/f/^a/)!ped-up! (3(c/=g/b/)!ped! (3(=d/^g/^b/)!ped-up! (3(^d/=a/c'/)!ped! (3(B/f/^a/)!ped-up! (3(c/=g/=b/)!ped! (3(=d/^g/^b/)!ped-up! (3(^d/=a/c'/) | %46
!ped! (3(^B/f/^a/)!ped-up! (3(c/=g/b/)!ped! (3(=d/^g/^b/)!ped-up! (3(^d/=a/c'/)!ped! (3(B/f/^a/)!ped-up! (3(c/=g/=b/)!ped! (3(=d/^g/^b/)!ped-up! (3(^d/=a/c'/) | %47
!ped! (10:8:10(G,/4^A,/4C/4D/4F/4[I:staff -1]G/4^A/4c/4d/4f/4)[I:staff +1] (10:8:10(G/4^A/4c/4d/4f/4[I:staff -1]g/4^a/4c'/4d'/4f'/4)[I:staff +1] x2 x2 x2 | %48
[M:2/4][K:bass] .G,,.G,,,!ped-up!!8vb(!!ped! !>!=A,,,,2-!8vb)! | %49
[M:4/4] (G,,/4C,/4D,/4F,/4^A,/4F,/4D,/4C,/4) (G,,/4C,/4D,/4F,/4A,/4F,/4D,/4C,/4) (G,,/4C,/4D,/4F,/4A,/4F,/4D,/4C,/4) (G,,/4C,/4D,/4F,/4A,/4F,/4D,/4C,/4)!ped-up! | %50
!ped! (G,,/4C,/4F,/4^A,/4z/4!ped-up!=A,/4F,/4=D,/4)!ped! (G,,/4D,/4F,/4A,/4^B,/4A,/4F,/4D,/4)!ped-up!!ped! (G,,/4C,/4F,/4^A,/4z/4!ped-up!=A,/4F,/4D,/4)!ped! (G,,/4D,/4F,/4A,/4B,/4A,/4F,/4D,/4)!ped-up! | %51
!ped! (G,,/4C,/4F,/4^A,/4^B,/4!ped-up!=A,/4F,/4=D,/4)!ped! (G,,/4D,/4F,/4A,/4B,/4A,/4F,/4D,/4)!ped-up!!ped! (G,,/4C,/4F,/4^A,/4B,/4!ped-up!=A,/4F,/4D,/4)!ped! (G,,/4D,/4F,/4A,/4B,/4A,/4F,/4D,/4) | %52
 (G,,/4=D,/4F,/4A,/4^B,/4A,/4F,/4D,/4) (G,,/4D,/4F,/4A,/4B,/4A,/4F,/4D,/4) (G,,/4D,/4F,/4A,/4B,/4A,/4F,/4D,/4) G,,/4D,/4F,/4A,/4 z!ped-up! | %53
[M:2/4][K:treble]!>(!!ped! ([^B,^B]!>)![A,A]/)!ped-up! z/!>(!!ped! ([B^b]!>)![Aa]/)!ped-up! z/ | %54
[M:3/4]!ped! x2!ped-up![K:bass]!ped! .G,.G,,!8vb(! .G,,,!^!=A,,,,!ped-up!!8vb)! | %55
[M:4/4]!ped! (G,,/4^E,/4G,/4^B,/4z/4!ped-up!=B,/4^G,/4=E,/4)!ped! (G,,/4E,/4G,/4B,/4=D/4B,/4G,/4E,/4)!ped-up!!ped! (G,,/4^E,/4G,/4^B,/4z/4!ped-up!=B,/4^G,/4=E,/4)!ped! (G,,/4E,/4G,/4B,/4D/4B,/4G,/4E,/4)!ped-up! | %56
[M:2/4]!ped! (G,,/4E,/4G,/4B,/4=D/4B,/4G,/4E,/4) G,,/4E,/4G,/4B,/4 x/ z/!ped-up! | %57
[K:treble]!>(!!ped! ([=D=d]!>)![B,B]/)!ped-up! z/!>(!!ped! ([d=d']!>)![Bb]/)!ped-up! z/ | %58
[M:3/4]!ped! x2!ped-up![K:bass]!ped! .G,.G,,!8vb(! .G,,,!^!A,,,,!ped-up!!8vb)! | %59
[M:4/4]!ped! (G,,/4C,/4F,/4^A,/4z/4!ped-up!^B,/4G,/4D,/4)!ped! (G,,/4^E,/4A,/4^^C/4[D,G,]/4!ped-up!B,/4[D,G,]/4C/4)!ped! ([=G,=C=E]3/2!ped![=A,=DF]!ped!!ped-up![B,E^G]/[A,DF]/[B,EG]/) | %60
[K:treble]!ped! (G,/4C/4F/4^A/4z/4!ped-up!^B/4G/4D/4)!ped! (G,/4^E/4A/4^^c/4[DG]/4!ped-up!B/4[DG]/4c/4)!ped! [^CFA]3/2[K:bass]!ped![K:treble][DGB]!ped!!ped-up![=E=Ac][F=Bd]/ | %61
[K:bass]"^una corda"!ped! z[K:treble] [EB] [eb][Ae]!ped-up![K:bass]!ped! z[K:treble] [EB] [eb][Ae]!ped-up! | %62
[M:2/4][K:bass]!ped! z[K:treble] [EB][Be][eb]!ped-up! | %63
[M:4/4]!ped! z[K:treble] [Ae] [ae'][=DF^B]!ped-up![K:bass]!ped! z[K:treble] [Ae] [ae'][DFB]!ped-up! | %64
[K:bass]!ped! z[K:treble] [ae'] [Ae][ea] [EA][Ae] [A,E][EA] | %65
[K:bass] [E,A,][E,A,][E,A,][E,A,] [E,A,][E,A,][E,A,][E,A,]!ped-up! | %66
[M:2/4]!ped! x[K:treble] x x x!ped-up! | %67
[M:4/4]!ped! x!ped-up!!ped! x!ped-up!!ped! x!ped-up!!ped! x!ped-up!!ped! x!ped-up!!ped! x!ped-up!!ped! x!ped-up!!ped! x!ped-up! | %68
!ped! x!ped-up!!ped! x!ped-up!!ped! x!ped-up!!ped! x!ped-up!!ped! x!ped-up!!ped! x!ped-up!!ped! x!ped-up!!ped! x!ped-up! | %69
[K:bass]!ped! F,F F,!ped-up!F F,,F, F,,F, |!ped! F,,,F,, F,,,F,, F,,,F,, F,,,F,,!ped-up! | %71
!<(!!ped! x x[K:treble] x x x/!<)!!fff! x/ x x2!ped-up! x2 x | %72
!ped! x x x x x x x x!ped-up!!ped! x x x2!ped-up! x x | %73
 x x!ped-up!!ped! x x x x x x x x!ped-up!!ped! x2 x2 x | x2 x | %75
!ped! (.[_e=g].[=fa]!ped-up!!ped! .[_df])!ped-up!([g=c']/[df]/)!ped-up!!ped! (.[eg].[fa]!ped-up!!ped! .[df])([gc']/[df]/) | %76
!ped! (.[_e=g].[=fa]!ped-up!!ped!.[_df].[eg])!ped-up!!ped! (.[B^d].[c^e]!ped-up!!ped!.[Ac].[Bd]3/4) !fermata!z/4!ped-up! | %77
[K:bass]!ped! [B,,F,A,]!ped-up!!ped![E,B,D]!ped-up!!ped! [A,,E,=G,]!ped-up!!ped![=D,A,C]!ped-up!!ped! [B,,F,A,]!ped-up!!ped![E,B,D]!ped-up!!ped! [A,,E,G,]!ped-up!!ped![D,A,C]!ped-up! | %78
!ped! [B,,F,A,]!ped-up!!ped![E,B,D]!ped-up!!ped! [A,,E,=G,]!ped-up!!ped![=D,A,C]!ped-up!!ped! [=G,,D,=F,]!ped-up!!ped![=C,G,B,] !fermata![^F,,^C,]2!ped-up! | %79
 z8!ped![K:treble]!ped-up! | %80
!mp! (.[cc'].[dd'] .[cc'].[ff']/.[dd']/!ped-up!!ped! .[cc'].[Gg])!>(! ([Gg]!>)![Ff]) | %81
!mp!!ped! (.[Cc].[Dd]!ped-up!!ped! .[Cc].[Ff]/.[Dd]/!ped-up!!ped! .[Cc].[G,G])!>(!!ped-up!!ped! ([G,G]!>)![F,F])!ped-up! | %82
"^marcato un poco" (!>!E!ped!!>!F/!>!E/ !>!C2)!ped-up!!ped! (!>!E!ped-up!!ped!!>!F/!>!E/ !>!C/!ped-up!!ped!!>!B,/!>!C)!ped-up! | %83
 (!>!E!ped!!>!F!>!E!ped-up!!ped!!>!C) (!>!B,2!ped-up!!ped! !>!C2)!ped-up!!ped!!ped-up! | %84
 z8!ped!!ped-up! | z8 | %86
[M:2/4]!pp! (b/8g/8e/8c/8B/8G/8E/8C/8[I:staff +1]B,,/8C,/8E,/8G,/8[I:staff -1]B,/8C/8E/8G/8"^senza rallentare"[I:staff +1]B,/8C/8E/8G/8[I:staff -1]B/8c/8e/8g/8[I:staff +1]B/8c/8e/8g/8!8va(![I:staff -1]e'/8g'/8b'/8c''/8 | %87
[M:4/4] [d'g'd''])!ped!!8va)! z z2 z4!ped-up! |] %88
V:3
 z8 |[M:2/4] z4 |[M:4/4] z8 | z8 | z8 | z8 | z8 |[M:2/4] z4 |[M:4/4] z8 | z8 | z8 |[M:1/4] z2 | %12
[M:4/4] z8 | z8 | z8 | z8 |[M:2/4] z4 |[M:4/4] z8 z/ z/4 | z8 | z8 | z8 | z8 | z8 | z8 | z8 | z8 | %26
 z8 | z8 | z8 | z8 | z8 | z8 | z8 | z8 | z8 | z8 | z8 z4 | z8 | z8 | z8 | z8 | z8 | z8 | z8 | z8 | %45
 z8 | z8 | z8 z2 |[M:2/4] z4 |[M:4/4] z8 | z8 | z8 | z8 |[M:2/4] z4 |[M:3/4] z6 |[M:4/4] z8 | %56
[M:2/4] z4 | z4 |[M:3/4] z6 |[M:4/4] z8 | z8 | z8 |[M:2/4] z4 |[M:4/4] z8 | z8 | z8 |[M:2/4] z4 | %67
[M:4/4] z8 | z8 | z8 | z8 | z8 z2 z | z8 z4 z2 | z8 z4 z2 z | z2 z | z8 | z8 | z8 | z8 | z8 | z8 | %81
 z8 |[K:bass]"^l.h." [G,A,C]2 [F,A,]2 [G,A,C]2 [F,A,]2 | %83
 [G,A,C]2 [F,A,]2 [G,,E,A,]2"_al Fine""^" [F,,E,A,]2{[E,,B,,]-} | %84
"^""^" (!wedge![Cc]!wedge![Dd]!wedge![G,G]!wedge!B !wedge![Cc]!wedge![Dd]!wedge![G,G]!wedge!B | %85
 !wedge![Cc]!wedge![Dd]!wedge![G,G]!wedge!B !wedge![Cc]!wedge![Dd]!wedge![G,G]!wedge!B) | %86
[M:2/4][K:bass] [E,,B,,]4[K:treble] |[M:4/4] [CG] z z2 z4 |] %88
V:4
 x8 |[M:2/4] x4 |[M:4/4] x8 | x4[K:bass] x4 | ([_B,,G,]3 [^C,=B,]) ([_B,,G,]3 [C,=B,]) | %5
 [_B,,G,]4 x4 | x[K:treble] x7 |[M:2/4] x4 |[M:4/4] x8 | x8 |[K:bass] x2[K:treble] x6 |[M:1/4] x2 | %12
[M:4/4] x8 | x8 |[K:bass] [C,,G,,]8[K:treble] |[K:bass] x8 |[M:2/4] x4 |[M:4/4][K:treble] x35/4 | %18
 x8 | x8 |[K:bass] x[K:treble] x7 |[K:bass] G,F, !>!E,2 !>!C,2 !>!B,,2 | %22
 !>!A,,2 !>!G,,2 !>!F,,2 !>!E,,2 | x8 | x[K:treble] x7 | x8 | x8 | x8 | x8 | x8 |[K:bass] x8 | x8 | %32
 x8 | x2[K:treble] x6 | G2 ^A,>A, x/ !>!=D3/2[K:bass] ^A,,2 | x2[K:treble] x4 =G2 | %36
 ^B,2 x2[K:bass] x/ !>![F,^A,]3/2 x2[K:treble] x4 | x8 | x8 | %39
[K:bass] !tenuto!C,4[K:treble][K:bass] !tenuto!C,4[K:treble] | x8 | %41
 !tenuto!F,4[K:treble] !tenuto!F,4 | !>!^^F,2 !>!^A,2 !>!C2 x2 | ^^F,2 ^A2 ^^F2 A2 | A2 =c2 A2 c2 | %45
 (^Bc=d^d) (Bc=d^d) | (^Bc=d^d) (Bc=d^d) | x10 |[M:2/4][K:bass] x2!8vb(! x2!8vb)! |[M:4/4] A,,,8 | %50
 x8 | x8 | x8 |[M:2/4][K:treble] x4 |[M:3/4] x2[K:bass] x2!8vb(! x2!8vb)! |[M:4/4] x8 |[M:2/4] x4 | %57
[K:treble] x4 |[M:3/4] x2[K:bass] x2!8vb(! x2!8vb)! |[M:4/4] x4 z/ !>![^G,,,^G,,]/- [G,,,G,,]3 | %60
[K:treble] x4 z/[K:bass] !>![G,,,G,,]/- [G,,,G,,]3[K:treble] | %61
[K:bass] !tenuto!G,,4[K:treble][K:bass] !tenuto!G,,4[K:treble] | %62
[M:2/4][K:bass] !tenuto!G,,4[K:treble] | %63
[M:4/4] !tenuto![E,E]4[K:treble][K:bass] !tenuto![G,,,G,,]4[K:treble] | %64
[K:bass] !tenuto![G,,,G,,]8[K:treble] |[K:bass] z4 !>!G,,4 |[M:2/4] x[K:treble] x3 |[M:4/4] x8 | %68
 x8 |[K:bass] x8 | x8 | x2[K:treble] x9 | x14 | x15 | x3 | x8 | x8 |[K:bass] x8 | x8 | %79
 (4:16:4x/ [=B,,,=B,,]/[K:treble]C/c/ | x8 | x8 | x8 | x8 | x8 | x8 |[M:2/4] x7/2!8va(! x/ | %87
[M:4/4] x!8va)! x7 |] %88
V:5
 x8 |[M:2/4] x2!8va(! x2 |[M:4/4] x8 | x4!8va)! x4 | x8 | x8 | x8 |[M:2/4] x4 |[M:4/4] x8 | x8 | %10
 x9/4!8va(! x7/4!8va)! x3!8va(! x!8va)! |[M:1/4] x2 |[M:4/4]!8va(! x8 | x4!8va)! x4 | x8 | x8 | %16
[M:2/4][K:bass] x2[K:treble] x2 |[M:4/4] x35/4 | x8 | x8 | x8 | x8 | x8 | x8 | x4!8va(! x4!8va)! | %25
 (2:16:2x/4x/4 (2:16:2x/4x/4 | x8 | x8 | x8 | x8 | x8 | x8 | x8 | x4!8va(! x4 | x3!8va)! x5 | %35
[K:bass] x2[K:treble] x4!8va(! x2 | x3!8va)! x9 | %37
 (!>!=d'/4^^f/4^e/4=d/4)(!>!c'/4f/4e/4c/4) (!>!f/4e/4B/4^^F/4)(!>!g/4e/4B/4G/4) !>!b/4=g/4=e/4B/4^d/4=e/4^e/4^f/4g/4^g/4a/4^a/4b/4=e'/4^d'/4=d'/4 | %38
 (!>!=d'/4^^f/4^e/4=d/4)(!>!c'/4f/4e/4c/4) (!>!f/4e/4B/4^^F/4)(!>!g/4e/4B/4G/4) !>!b/4=g/4=e/4B/4^d/4=e/4^e/4^f/4g/4^g/4a/4^a/4b/4=e'/4^d'/4=d'/4 | %39
 (!>!=d'/4b/4^e/4=d/4)(!>!c'/4b/4e/4c/4) (!>!=e'/4b/4^e/4=e/4)(!>!d'/4b/4^e/4d/4) (!>!d'/4b/4e/4d/4)(!>!c'/4b/4e/4c/4) (!>!d'/4b/4e/4d/4)(!>!=e'/4b/4^e/4=e/4) | %40
 (!>!=g'/4^b/4^a/4=g/4)(!>!f'/4b/4a/4f/4) (!>!b/4a/4e/4^B/4)(!>!c'/4a/4e/4c/4) !>!e'/4=c'/4=a/4e/4^g/4a/4^a/4=b/4=c'/4^c'/4=d'/4^d'/4e'/4=a'/4^g'/4=g'/4 | %41
!8va(! (!>!=g'/4e'/4^a/4=g/4)(!>!f'/4e'/4a/4f/4) (!>!=a'/4e'/4^a/4=a/4)(!>!g'/4e'/4^a/4g/4) (!>!g'/4e'/4a/4g/4)(!>!f'/4e'/4a/4f/4) (!>!g'/4e'/4a/4g/4)(!>!=a'/4e'/4^a/4=a/4) | %42
 (!>!^b'/4^e'/4c'/4^b/4)(!>!^a'/4e'/4d'/4^a/4) (!>!d'/4c'/4g/4d/4)(!>!=e'/4c'/4g/4e/4) !>!=g'/4e'/4=b/4=g/4^g/4=a/4^a/4b/4 ^b/4c'/4=d'/4^d'/4e'/4^e'/4f'/4=g'/4 | %43
 (!>!^b'/4^e'/4c'/4^b/4)(!>!^a'/4e'/4d'/4^a/4) (!>!c''/4^g'/4=e'/4c'/4)(!>!b'/4g'/4e'/4b/4) (!>!b'/4^e'/4c'/4b/4)(!>!a'/4e'/4d'/4a/4) (!>!b'/4=e'/4c'/4b/4)(!>!c''/4g'/4e'/4c'/4) | %44
 (!>!=d''/4=g'/4_e'/4=d'/4)(!>!=c''/4g'/4e'/4=c'/4) (!>!_e''/4_b'/4_g'/4e'/4)(!>!d''/4b'/4g'/4d'/4) (!>!d''/4=g'/4e'/4d'/4)(!>!c''/4g'/4e'/4c'/4) (!>!d''/4b'/4_g'/4d'/4)(!>!e''/4b'/4g'/4e'/4) | %45
 (!>!^e''/4^a'/4f'/4^e'/4)(!>!d''/4b'/4=g'/4d'/4) (!>!f''/4^b'/4^g'/4f'/4)(!>!e''/4c''/4=a'/4e'/4) (!>!e''/4^a'/4f'/4e'/4)(!>!d''/4=b'/4=g'/4d'/4) (!>!f''/4^b'/4^g'/4f'/4)(!>!e''/4c''/4=a'/4e'/4) | %46
 (!>!^e''/4^a'/4f'/4^e'/4)(!>!d''/4b'/4=g'/4d'/4) (!>!f''/4^b'/4^g'/4f'/4)(!>!e''/4c''/4=a'/4e'/4) (!>!e''/4^a'/4f'/4e'/4)(!>!d''/4=b'/4=g'/4d'/4) (!>!f''/4^b'/4^g'/4f'/4)(!>!e''/4c''/4=a'/4e'/4) | %47
 x2!8va)! x2!8va(! x115/24!8va)! x19/24[K:bass] x5/12 |[M:2/4] x4 |[M:4/4] x8 |[K:treble] x8 | x8 | %52
[K:bass] x7[K:treble] x |[M:2/4] x2!8va(! x2 |[M:3/4] x!8va)! x3[K:bass] x2 |[M:4/4][K:treble] x8 | %56
[M:2/4] x2[K:bass] x[K:treble] [=DE]/4G/4B/4e/4 | x2!8va(! x2 |[M:3/4] x!8va)! x3[K:bass] x2 | %59
[M:4/4][K:treble] x4 (!>!=c'/4=g/4e/4=c/4)(!>!=d'/4a/4f/4=d/4) (!>!b/4f/4d/4^B/4)(!>!f/4d/4^c/4B/4) | %60
 x2 [g^b]2!8va(! (!>!f'/4c'/4^a/4^f/4)(!>!g'/4d'/4^b/4g/4) (!>!=a'/4e'/4c'/4[=g=a]/4) f'/[a=b]/!8va)! | %61
 x8 |[M:2/4] x2!8va(! x2 |[M:4/4] x8 | x4!8va)! x4 | x8 | %66
[M:2/4] x/5[K:bass] x[K:treble] x9/5!8va(! x |[M:4/4] x8 | x119/30!8va)! x121/30 | %69
 (3:2:2x/ [E=G] (3:2:2x/ [EG][K:bass] (3:2:2x/ [=G,E] (3:2:2x/ [E,G,] (3:2:2x/ [E,G,] (3:2:2x/ [E,G,] (3:2:2x/ [=G,,=C,] (3:2:2x/ [E,,G,,] | %70
 (3:2:2x/ [E,,=G,,] (3:2:2x/ [E,,G,,] (3:2:2x/ [E,,G,,] (3:2:2x/ [E,,G,,] (3:2:2x/ [E,,G,,] (3:2:2x/ [E,,G,,] (3:2:2x/ [E,,G,,] (3:2:2x/ [E,,G,,] | %71
 x77/32[K:treble] x25/16!8va(! x127/64!8va)! x2!8va(! x2!8va)! x25/24 | x14 | x15 | x3 | x8 | x8 | %77
 [CF]/[DG]/[DG]/[CF]/ [B,E]/[CF]/[Fc]/A/ [CF]/[^DG]/[DG]/[CF]/ [B,E]/[CF]/[Fc]/A/ | %78
 [CF]/[DG]/G/[CF]/ [B,E]/[CF]/F/[B,E]/ [A,=D]/[B,E]/E/=C/ ^B,2- | %79
 x2 (15:24:15z/4 ([=A,=B,]/4E/4F/4"^rapido"A/4B/4[AB]/4e/4f/4a/4b/4[ab]/4e'/4f'/4a'/4) | x8 | x8 | %82
 x8 | !>!a'2 !>!f'2 !>!e'2 !>!b2 | x8 | x8 |[M:2/4] x4 |[M:4/4] x8 |] %88
V:6
 x8 |[M:2/4] x4 |[M:4/4] x8 | x8 | x8 | x8 | x8 |[M:2/4] x4 |[M:4/4] x8 | x8 | x8 |[M:1/4] x2 | %12
[M:4/4] x8 | x8 | x8 | x8 |[M:2/4] x4 |[M:4/4] x35/4 | x8 | x8 | x8 | x8 | x8 | x8 | x8 | x8 | x8 | %27
 x8 | x8 | x8 | x8 | x8 | x8 | x8 | x8 | x8 | x12 | x8 | x8 | x8 | x8 | x8 | x8 | x8 | x8 | x8 | %46
 x8 | x10 |[M:2/4] x4 |[M:4/4] x8 | x8 | x8 | x8 |[M:2/4] x4 |[M:3/4] x6 |[M:4/4] x8 |[M:2/4] x4 | %57
 x4 |[M:3/4] x6 |[M:4/4] x8 | x8 | x8 |[M:2/4] x4 |[M:4/4] x8 | x8 | x8 |[M:2/4] x4 |[M:4/4] x8 | %68
 x8 | x8 | x8 | x11 | x14 | x15 | x3 | x8 | x8 | x8 | x8 | x8 | x8 | x8 | %82
[K:bass] [A,,E,]2- [A,,E,][A,,E,]- [A,,E,]2- [A,,E,]>[A,,E,]- | [A,,E,]4 x4 | [E,,B,,]8 | x8 | %86
[M:2/4][K:bass] x2[K:treble] x2 |[M:4/4] x8 |] %88

